resources/svg/car-line.svg

<svg fill="currentColor" viewBox="0 0 24 24" xmlns="http://www.w3.org/2000/svg"><path d="M19 20H5V21C5 21.5523 4.55228 22 4 22H3C2.44772 22 2 21.5523 2 21V11L4.4805 5.21216C4.79566 4.47679 5.51874 4 6.31879 4H17.6812C18.4813 4 19.2043 4.47679 19.5195 5.21216L22 11V21C22 21.5523 21.5523 22 21 22H20C19.4477 22 19 21.5523 19 21V20ZM20 13H4V18H20V13ZM4.17594 11H19.8241L17.6812 6H6.31879L4.17594 11ZM6.5 17C5.67157 17 5 16.3284 5 15.5C5 14.6716 5.67157 14 6.5 14C7.32843 14 8 14.6716 8 15.5C8 16.3284 7.32843 17 6.5 17ZM17.5 17C16.6716 17 16 16.3284 16 15.5C16 14.6716 16.6716 14 17.5 14C18.3284 14 19 14.6716 19 15.5C19 16.3284 18.3284 17 17.5 17Z"/></svg>

<svg xmlns="http://www.w3.org/2000/svg" viewBox="0 0 24 24" fill="currentColor">
    <g>
        <path fill="none" d="M0 0h24v24H0z"/>
        <path d="M19 20H5v1a1 1 0 0 1-1 1H3a1 1 0 0 1-1-1V11l2.48-5.788A2 2 0 0 1 6.32 4H17.68a2 2 0 0 1 1.838 1.212L22 11v10a1 1 0 0 1-1 1h-1a1 1 0 0 1-1-1v-1zm1-7H4v5h16v-5zM4.176 11h15.648l-2.143-5H6.32l-2.143 5zM6.5 17a1.5 1.5 0 1 1 0-3 1.5 1.5 0 0 1 0 3zm11 0a1.5 1.5 0 1 1 0-3 1.5 1.5 0 0 1 0 3z"/>
    </g>
</svg>
